packages/gestalt-icons-android/vr-theme/ic_vr_ads-stats_gestalt.svg

<svg width="24" height="24" viewBox="0 0 24 24" fill="none" xmlns="http://www.w3.org/2000/svg">
<path d="M16.5858 3H14V1H20V7H18V4.41421L12.7071 9.70711C12.3166 10.0976 11.6834 10.0976 11.2929 9.70711L9 7.41421L4.70711 11.7071L3.29289 10.2929L8.29289 5.29289C8.68342 4.90237 9.31658 4.90237 9.70711 5.29289L12 7.58579L16.5858 3Z" fill="black"/>
<path fill-rule="evenodd" clip-rule="evenodd" d="M3 14C1.89543 14 1 14.8954 1 16V21C1 22.1046 1.89543 23 3 23H5C6.10457 23 7 22.1046 7 21V16C7 14.8954 6.10457 14 5 14H3ZM5 16H3L3 21H5V16Z" fill="black"/>
<path fill-rule="evenodd" clip-rule="evenodd" d="M11 14C9.89543 14 9 14.8954 9 16V21C9 22.1046 9.89543 23 11 23H13C14.1046 23 15 22.1046 15 21V16C15 14.8954 14.1046 14 13 14H11ZM11 16V21H13V16H11Z" fill="black"/>
<path fill-rule="evenodd" clip-rule="evenodd" d="M17 16C17 14.8954 17.8954 14 19 14H21C22.1046 14 23 14.8954 23 16V21C23 22.1046 22.1046 23 21 23H19C17.8954 23 17 22.1046 17 21V16ZM19 21V16H21V21H19Z" fill="black"/>
</svg>

<svg xmlns="http://www.w3.org/2000/svg" width="24" height="24"><path d="M16.59 3H14V1h6v6h-2V4.41l-5.3 5.3a1 1 0 0 1-1.4 0L9 7.4l-4.3 4.3-1.4-1.42 5-5a1 1 0 0 1 1.4 0L12 7.6zM5 14a2 2 0 0 1 2 2v5a2 2 0 0 1-2 2H3a2 2 0 0 1-2-2v-5c0-1.1.9-2 2-2zm0 2H3v5h2zm8-2a2 2 0 0 1 2 2v5a2 2 0 0 1-2 2h-2a2 2 0 0 1-2-2v-5c0-1.1.9-2 2-2zm-2 2v5h2v-5zm6 0c0-1.1.9-2 2-2h2a2 2 0 0 1 2 2v5a2 2 0 0 1-2 2h-2a2 2 0 0 1-2-2zm4 5v-5h-2v5z"/></svg>
